X:555
T:My Love She's But A Lassie Yet #1 
C:Joe Buchanan's Scottish Tome - Page 141.1
I:141 1
Z:Carl Allison
R:Reel
L:1/8
M:4/4
K:D
d/c/ | "D"dD "F#"FA | "D"dD "F#"Dd/c/ | "D"fd "Bm"FA | "D7"eE "A7"Ed/c/ |
"D"dD "F#"FA | "G"Bg "D"f>e | "G"d/c/B/A/ "A7"B/c/d/e/ | "D"fd "D7"d :|
f/g/ | "D"a>f "G"g>e | "D"fd "F#"df/g/ | "D"af "Bm"g/f/g/a/ | "D7"be "A7"ef/g/ |
"D"af "Em"ge | "D"fd "A7"dc | "G"d/c/B/A/ "A7"B/c/d/e/ | "D"fd "D7"d :|

